!! 00000] TT[WS
!!!OTL: Xuehui changqu jie xinkuan
!!!ARE: Asia, China, Shanxi Hequ
!! Ethnic Group: Han
!! WII, 13 (1)
!!!SCT: J0413
!!!YEM: Copyright 1995, estate of Helmut Schaffrath.
**kern
*ICvox
*Ivox
*M2/4
*k[f#]
*G:
{8.dd
16gg
8dd
16b
16a
=1
8.g
16e
8dd
16dd
16b
=2
8a
8d
8g
16b
16dd
=3
2a}
=4
{8.dd
16gg
8dd
16b
16a
=5
8.g
16e
8dd
16dd
16b
=6
8a
8d
8g
16f#
16e
=7
2d}
==
!!!AGN: Shange, Shanqu. Qingge, Aisu
!!!ONB: ESAC (Essen Associative Code) Database: CHINA
!!!AMT: simple duple
!!!AIN: vox
!!!EED: Helmut Schaffrath
!!!EEV: 1.0
*-
